public/img/old-svg/ruso.svg

<svg width="40" height="8" viewBox="0 0 40 8" fill="none" xmlns="http://www.w3.org/2000/svg">
<path d="M10 4.72434V0L11.6743 0V4.66521C11.6743 5.76139 12.3027 6.51492 13.5004 6.51492C14.6981 6.51492 15.3138 5.76064 15.3138 4.66521V0L17 0V4.71297C17 6.66881 15.8599 8 13.5004 8C11.1394 8 10 6.65669 10 4.72434Z" fill="#2D2D2D"/>
<path d="M21 6.76889L21.9812 5.51536C22.581 6.0846 23.5114 6.55972 24.6846 6.55972C25.6798 6.55972 26.1639 6.14212 26.1639 5.70063C26.1639 4.33056 21.2675 5.27108 21.2675 2.3569C21.2675 1.06826 22.4916 0 24.4934 0C25.8455 0 26.9671 0.371276 27.8088 1.08021L26.8013 2.28742C26.1138 1.70698 25.1949 1.44028 24.3277 1.44028C23.5499 1.44028 23.1167 1.75329 23.1167 2.21795C23.1167 3.44831 28 2.62433 28 5.51536C28 6.93174 26.8908 8 24.596 8C22.9641 8 21.7909 7.50023 21 6.76889Z" fill="#2D2D2D"/>
<path d="M32 4.00037C32 1.66941 33.687 0 35.9945 0C38.313 0 40 1.66941 40 4.00037C40 6.33059 38.313 8 35.9945 8C33.687 8 32 6.33059 32 4.00037ZM38.324 4.00037C38.324 2.55148 37.4061 1.46147 35.9945 1.46147C34.5829 1.46147 33.676 2.55148 33.676 4.00037C33.676 5.43816 34.5829 6.53927 35.9945 6.53927C37.4061 6.53927 38.324 5.43816 38.324 4.00037Z" fill="#2D2D2D"/>
<path d="M4.3331 4.95264C5.13295 4.74892 5.95568 3.99344 5.95568 2.57818C5.95568 1.09115 5.01144 0 3.46676 0L0 0L0 1.4986L1.57756 1.4986H1.69478L3.23374 1.4986C3.86705 1.4986 4.34453 1.90605 4.34453 2.57818C4.34453 3.24954 3.86633 3.65776 3.23374 3.65776L1.69478 3.65776H1.57756H0.000714676L0.000714676 7.99923H1.57827L1.57827 5.15713H2.7341L4.18871 8H6L4.3331 4.95264Z" fill="#2D2D2D"/>
</svg>

<svg width="40" height="8" viewBox="0 0 40 8" fill="none" xmlns="http://www.w3.org/2000/svg"><path d="M10 4.724V0h1.674v4.665c0 1.096.629 1.85 1.826 1.85 1.198 0 1.814-.754 1.814-1.85V0H17v4.713C17 6.669 15.86 8 13.5 8 11.14 8 10 6.657 10 4.724zm11 2.045l.981-1.254c.6.57 1.53 1.045 2.704 1.045.995 0 1.479-.418 1.479-.86 0-1.37-4.897-.429-4.897-3.343C21.267 1.068 22.492 0 24.493 0c1.353 0 2.474.371 3.316 1.08L26.8 2.287c-.687-.58-1.606-.847-2.473-.847-.778 0-1.211.313-1.211.778 0 1.23 4.883.406 4.883 3.297C28 6.932 26.89 8 24.596 8 22.964 8 21.791 7.5 21 6.769zM32 4c0-2.33 1.687-4 3.995-4C38.313 0 40 1.67 40 4s-1.687 4-4.005 4C33.687 8 32 6.33 32 4zm6.324 0c0-1.449-.918-2.539-2.33-2.539-1.411 0-2.318 1.09-2.318 2.54 0 1.437.907 2.538 2.319 2.538 1.411 0 2.329-1.1 2.329-2.539zm-33.991.953c.8-.204 1.623-.96 1.623-2.375C5.956 1.091 5.01 0 3.466 0H0v1.499h3.234c.633 0 1.11.407 1.11 1.08 0 .67-.478 1.079-1.11 1.079H0v4.341h1.577V5.157h1.156L4.19 8H6L4.333 4.953z" fill="#2D2D2D"/></svg>
